file/i24-news.svg

<svg clip-rule="evenodd" fill-rule="evenodd" stroke-linejoin="round" stroke-miterlimit="1.41421" viewBox="0 0 560 400" xmlns="http://www.w3.org/2000/svg"><g fill-rule="nonzero"><path d="m0 0h-151.948l15.991 82.261h151.944z" fill="#132544" transform="matrix(2.14367668368 0 0 -2.14367668368 425.72305768 288.1686764)"/><g fill="#fff"><path d="m0 0-3.08 5.276h-2.582l-1.939-10.118h2.737l1.066 5.473 3.197-5.473h2.423l1.942 10.118h-2.74z" transform="matrix(2.14367668368 0 0 -2.14367668368 202.65861664 254.6260652)"/><path d="m0 0h8.1l.457 2.476h-5.363l.31 1.629h4.788l.424 2.192h-4.789l.295 1.341h5.287l.458 2.48h-8.028z" transform="matrix(2.14367668368 0 0 -2.14367668368 211.9922128 265.00482968)"/><path d="m0 0-2.861-5.786-.798 5.786h-2.381l-3.05-5.786-.62 5.786h-2.921l1.383-10.118h2.408l3.114 5.749.892-5.749h2.411l5.288 10.118z" transform="matrix(2.14367668368 0 0 -2.14367668368 263.49713536 243.31758704)"/><path d="m0 0c.072.359.454.643 1.123.643.884 0 1.814-.344 2.604-.987l1.761 1.958c-.915.865-2.151 1.323-3.848 1.323-2.396 0-4.123-1.338-4.482-3.19l-.008-.03c-.397-2.053 1.123-2.65 3.156-3.137 1.293-.314 1.576-.545 1.497-.957l-.008-.026c-.083-.427-.533-.688-1.273-.688-1.153 0-2.174.416-3.001 1.202l-1.898-1.845c1.009-1.096 2.586-1.651 4.354-1.651 2.423 0 4.271 1.213 4.668 3.25l.004.03c.363 1.868-.919 2.608-3.118 3.107-1.319.314-1.625.514-1.535.968z" transform="matrix(2.14367668368 0 0 -2.14367668368 276.72615405923 249.40277372563)"/><path d="m0 0 17.56 19.223-3.738-19.223zm31.483-.015h-6.833l6.826 35.161h-2.997-7.824-2.997l-32.054-35.161h-29.741c1.043 3.817 4.203 6.814 8.87 6.814h13.992c7.752 0 14.064 6.392 14.064 14.174 0 7.778-6.312 14.173-14.064 14.173h-27.145l-2.063-10.632h29.208c1.86 0 3.432-1.655 3.432-3.541s-1.572-3.546-3.432-3.546h-13.992c-9.736 0-17.93-7.022-19.918-17.181l-1.568-8.285c-1.112-1.202-6.596-7-8.523-6.331-.888.31-.801 1.743-.718 2.362l6.247 32.164h-11.773s-5.749-29.567-5.809-29.885c-1.157-5.684-2.162-10.934-.862-13.636 4.131-8.602 18.195 8.632 21.396 12.722h68.553l-2.067-10.636h7.162c2.132 0 3.961 1.512 4.365 3.602l1.368 7.034h6.83z" transform="matrix(2.14367668368 0 0 -2.14367668368 310.53193536086 211.1703000722)"/><path d="m0 0h-4.486c-4.233 0-7.873-2.986-8.678-7.143l-.677-3.466h11.774z" transform="matrix(2.14367668368 0 0 -2.14367668368 188.72822619417 135.81363361079)"/></g></g></svg>

<?xml version="1.0" encoding="UTF-8" standalone="no"?>
<!DOCTYPE svg PUBLIC "-//W3C//DTD SVG 1.1//EN" "http://www.w3.org/Graphics/SVG/1.1/DTD/svg11.dtd">
<svg width="100%" height="100%" viewBox="0 0 560 400" version="1.1" xmlns="http://www.w3.org/2000/svg" xmlns:xlink="http://www.w3.org/1999/xlink" xml:space="preserve" xmlns:serif="http://www.serif.com/" style="fill-rule:evenodd;clip-rule:evenodd;stroke-linejoin:round;stroke-miterlimit:1.41421;">
    <g transform="matrix(6.07656,0,0,6.07656,-2081.18,-3061.93)">
        <g id="path35610" transform="matrix(0.352778,0,0,-0.352778,412.553,551.315)">
            <path d="M0,0L-151.948,0L-135.957,82.261L15.987,82.261L0,0Z" style="fill:rgb(19,37,68);fill-rule:nonzero;"/>
        </g>
        <g id="path35614" transform="matrix(0.352778,0,0,-0.352778,375.844,545.795)">
            <path d="M0,0L-3.08,5.276L-5.662,5.276L-7.601,-4.842L-4.864,-4.842L-3.798,0.631L-0.601,-4.842L1.822,-4.842L3.764,5.276L1.024,5.276L0,0Z" style="fill:white;fill-rule:nonzero;"/>
        </g>
        <g id="path35618" transform="matrix(0.352778,0,0,-0.352778,377.38,547.503)">
            <path d="M0,0L8.1,0L8.557,2.476L3.194,2.476L3.504,4.105L8.292,4.105L8.716,6.297L3.927,6.297L4.222,7.638L9.509,7.638L9.967,10.118L1.939,10.118L0,0Z" style="fill:white;fill-rule:nonzero;"/>
        </g>
        <g id="path35622" transform="matrix(0.352778,0,0,-0.352778,385.856,543.934)">
            <path d="M0,0L-2.861,-5.786L-3.659,0L-6.04,0L-9.09,-5.786L-9.71,0L-12.631,0L-11.248,-10.118L-8.84,-10.118L-5.726,-4.369L-4.834,-10.118L-2.423,-10.118L2.865,0L0,0Z" style="fill:white;fill-rule:nonzero;"/>
        </g>
        <g id="g35626" transform="matrix(0.352778,0,0,-0.352778,-937.495,668.056)">
            <g id="path35634" transform="matrix(1,0,0,1,3757.4,349.003)">
                <path d="M0,0C0.072,0.359 0.454,0.643 1.123,0.643C2.007,0.643 2.937,0.299 3.727,-0.344L5.488,1.614C4.573,2.479 3.337,2.937 1.64,2.937C-0.756,2.937 -2.483,1.599 -2.842,-0.253L-2.85,-0.283C-3.247,-2.336 -1.727,-2.933 0.306,-3.42C1.599,-3.734 1.882,-3.965 1.803,-4.377L1.795,-4.403C1.712,-4.83 1.262,-5.091 0.522,-5.091C-0.631,-5.091 -1.652,-4.675 -2.479,-3.889L-4.377,-5.734C-3.368,-6.83 -1.791,-7.385 -0.023,-7.385C2.4,-7.385 4.248,-6.172 4.645,-4.135L4.649,-4.105C5.012,-2.237 3.73,-1.497 1.531,-0.998C0.212,-0.684 -0.094,-0.484 -0.004,-0.03L0,0Z" style="fill:white;fill-rule:nonzero;"/>
            </g>
            <g id="path35638" transform="matrix(1,0,0,1,3773.17,366.838)">
                <path d="M0,0L17.56,19.223L13.822,0L0,0ZM31.483,-0.015L24.65,-0.015L31.476,35.146L28.479,35.146L20.655,35.146L17.658,35.146L-14.396,-0.015L-44.137,-0.015C-43.094,3.802 -39.934,6.799 -35.267,6.799L-21.275,6.799C-13.523,6.799 -7.211,13.191 -7.211,20.973C-7.211,28.751 -13.523,35.146 -21.275,35.146L-48.42,35.146L-50.483,24.514L-21.275,24.514C-19.415,24.514 -17.843,22.859 -17.843,20.973C-17.843,19.087 -19.415,17.427 -21.275,17.427L-35.267,17.427C-45.003,17.427 -53.197,10.405 -55.185,0.246L-56.753,-8.039C-57.865,-9.241 -63.349,-15.039 -65.276,-14.37C-66.164,-14.06 -66.077,-12.627 -65.994,-12.008L-59.747,20.156L-71.52,20.156C-71.52,20.156 -77.269,-9.411 -77.329,-9.729C-78.486,-15.413 -79.491,-20.663 -78.191,-23.365C-74.06,-31.967 -59.996,-14.733 -56.795,-10.643L11.758,-10.643L9.691,-21.279L16.853,-21.279C18.985,-21.279 20.814,-19.767 21.218,-17.677L22.586,-10.643L29.416,-10.643L31.483,-0.015Z" style="fill:white;fill-rule:nonzero;"/>
            </g>
            <g id="path35642" transform="matrix(1,0,0,1,3716.35,401.991)">
                <path d="M0,0L-4.486,0C-8.719,0 -12.359,-2.986 -13.164,-7.143L-13.841,-10.609L-2.067,-10.609L0,0Z" style="fill:white;fill-rule:nonzero;"/>
            </g>
        </g>
    </g>
</svg>
